X: 4752
T:Music for a Found Harmonium
M:4/4
L:1/8
C:Simon Jeffes
Z:as taught by Artie McGlynn on workshop in De Glind, Holland, Nov. '94
K:D
FDGD FD2D|FDGD FD2D|FDGD FD2D|EDCD D2DD:|!
EDCD EDCD|FDCD FDCD|GDED CDGD|FDDE D2DD:|!
K:C cFEF GF2F|cFEF E3F|cFEF GF2F|cFEF E3F:|!
K:F BFDF GF2F|BFDF GF2F|BGEF GE2F|BGEF GE2F|!
K:D cGEG CG2G|cGEG CG2G|cGEG CG2G|cGEG CG2G|!
EDCD EDCD|FD=CD FD=CD|GDED CDGD|FDDE D2DD:|!
